media/img/firefox/welcome/page19/yours.svg

<svg width="200" height="125" viewBox="0 0 200 125" xmlns="http://www.w3.org/2000/svg" xmlns:xlink="http://www.w3.org/1999/xlink">
    <path id="Path" fill="#cdd0ff" stroke="none" d="M 98.868103 97.705902 C 118.305199 97.705902 134.061996 81.948997 134.061996 62.511902 C 134.061996 43.074799 118.305199 27.317902 98.868103 27.317902 C 79.431 27.317902 63.674072 43.074799 63.674072 62.511902 C 63.674072 81.948997 79.431 97.705902 98.868103 97.705902 Z"/>
    <path id="path1" fill="none" stroke="#000000" stroke-width="1.5" stroke-linecap="round" stroke-linejoin="round" d="M 126.589401 21.655762 C 127.420502 21.655762 128.094193 20.982002 128.094193 20.150879 C 128.094193 19.319763 127.420502 18.646004 126.589401 18.646004 C 125.758202 18.646004 125.084503 19.319763 125.084503 20.150879 C 125.084503 20.982002 125.758202 21.655762 126.589401 21.655762 Z"/>
    <path id="path2" fill="none" stroke="#000000" stroke-width="1.5" stroke-linecap="round" stroke-linejoin="round" d="M 58.199219 107.879402 C 59.030338 107.879402 59.704102 107.205597 59.704102 106.374496 C 59.704102 105.543404 59.030338 104.869598 58.199219 104.869598 C 57.368099 104.869598 56.69434 105.543404 56.69434 106.374496 C 56.69434 107.205597 57.368099 107.879402 58.199219 107.879402 Z"/>
    <path id="path3" fill="none" stroke="#000000" stroke-width="1.5" stroke-linecap="round" stroke-linejoin="round" d="M 56.156738 44.414001 L 59.768459 44.414001"/>
    <path id="path4" fill="none" stroke="#000000" stroke-width="1.5" stroke-linecap="round" stroke-linejoin="round" d="M 57.96265 46.219902 L 57.96265 42.6082"/>
    <path id="path5" fill="none" stroke="#000000" stroke-width="1.5" stroke-linecap="round" stroke-linejoin="round" d="M 140.151596 30.560699 L 143.76329 30.560699"/>
    <path id="path6" fill="none" stroke="#000000" stroke-width="1.5" stroke-linecap="round" stroke-linejoin="round" d="M 141.958099 32.366699 L 141.958099 28.754898"/>
    <path id="path7" fill="none" stroke="#000000" stroke-width="1.5" stroke-linecap="round" stroke-linejoin="round" d="M 100.393105 97.705902 C 102.003105 97.706299 103.611099 97.5923 105.204903 97.364601"/>
    <path id="path8" fill="none" stroke="#000000" stroke-width="1.5" stroke-linecap="round" stroke-linejoin="round" d="M 134.062302 64.036301 C 134.062302 45.441101 118.9879 30.366699 100.3927 30.366699 C 81.797501 30.366699 66.723099 45.441101 66.723099 64.036301 C 66.723099 82.6315 81.7976 97.705902 100.392799 97.705902"/>
    <path id="path9" fill="none" stroke="#000000" stroke-width="1.5" stroke-linecap="round" stroke-linejoin="round" d="M 140.621292 73.7314 C 141.382294 70.555901 141.765701 67.301697 141.763596 64.036301 C 141.763596 41.187897 123.241302 22.665649 100.392899 22.665649 C 77.544601 22.665649 59.022339 41.187897 59.022339 64.036301 C 59.022339 86.884598 77.544601 105.406898 100.392899 105.406898 C 104.855301 105.411499 109.289001 104.693298 113.521698 103.280296"/>
    <path id="path10" fill="none" stroke="#000000" stroke-width="1.5" stroke-linecap="round" stroke-linejoin="round" d="M 99.999199 75.673698 C 97.514404 75.729095 95.0709 75.032799 92.988602 73.675903 C 90.906303 72.319 89.282303 70.364899 88.329399 68.069504 C 87.376503 65.774101 87.139 63.2444 87.648102 60.811699 C 88.157204 58.379005 89.389198 56.156799 91.182602 54.436203 C 92.976006 52.7155 95.247299 51.576599 97.699005 51.168602 C 100.150604 50.760605 102.668304 51.1026 104.922401 52.149704 C 107.176399 53.1968 109.0616 54.900299 110.3311 57.037003 C 111.600601 59.173698 112.195206 61.643902 112.037003 64.124298"/>
    <path id="path11" fill="none" stroke="#000000" stroke-width="1.5" stroke-linecap="round" stroke-linejoin="round" d="M 96.108398 70.1791 C 94.908501 69.542801 93.897301 68.601898 93.176498 67.450699 C 92.455696 66.299599 92.050797 64.979004 92.002396 63.6217 C 91.953995 62.2645 92.264 60.918396 92.901001 59.718895 C 93.538101 58.519402 94.479698 57.508797 95.631302 56.788895 C 96.782898 56.068901 98.103798 55.664795 99.461098 55.617401 C 100.818497 55.57 102.164299 55.880798 103.363396 56.5187 C 104.562401 57.156502 105.572296 58.0989 106.291595 59.250999 C 107.010796 60.403099 107.413895 61.724201 107.460396 63.0816"/>
    <path id="path12" fill="#bc94ff" stroke="#000000" stroke-width="1.5" stroke-linecap="round" stroke-linejoin="round" d="M 124.735603 66.418098 L 124.505798 66.579803 C 123.129799 67.548004 123.138603 69.194199 124.106796 70.570206 L 126.413803 73.835602 L 126.405197 73.839798 L 122.734703 68.625305 C 122.266197 67.963799 121.555 67.514496 120.756401 67.375595 C 119.957802 67.236694 119.136703 67.419495 118.472397 67.884102 C 117.096397 68.852295 116.606796 70.870399 117.575096 72.246399 L 120.667702 76.660301 L 120.667603 76.6604 L 116.0952 70.164299 C 115.626801 69.5028 114.915596 69.053497 114.116997 68.914597 C 113.318298 68.775696 112.4972 68.958496 111.832901 69.423004 C 110.457001 70.391296 109.988701 72.449905 110.957001 73.825897 L 114.935699 79.478195 L 114.930099 79.480896 L 102.835098 62.294899 C 102.366699 61.633301 101.655495 61.183998 100.856895 61.045101 C 100.058296 60.906204 99.237099 61.089001 98.5728 61.553501 C 97.911301 62.0219 97.461998 62.733101 97.323097 63.531799 C 97.184196 64.330399 97.366997 65.151505 97.831497 65.815796 L 110.616898 83.984802 L 114.744797 89.8508 L 109.527496 86.143303 C 108.849297 85.664398 108.009201 85.473297 107.190697 85.611801 C 106.372101 85.750298 105.641602 86.2071 105.158699 86.882401 C 104.679794 87.560501 104.488701 88.400597 104.627197 89.2192 C 104.765594 90.037804 105.222397 90.768303 105.897797 91.251099 C 105.897797 91.251099 116.882195 99.129601 117.5336 99.519897 C 119.408401 100.6446 121.509102 101.340202 123.6847 101.556801 C 125.860199 101.7733 128.056793 101.505402 130.116592 100.772301 C 132.1763 100.0392 134.048203 98.8591 135.597794 97.316803 C 137.147293 95.774399 138.33609 93.907997 139.078796 91.8517 C 139.106201 91.775597 139.132889 91.699402 139.15889 91.622902 C 139.9198 89.409897 140.144699 87.047897 139.814896 84.731102 C 139.485199 82.414299 138.610291 80.2089 137.262192 78.296005 L 131.587799 70.2323 C 128.474899 65.808601 126.202103 65.569801 124.735603 66.418098 Z"/>
</svg>

<svg width="200" height="125" xmlns="http://www.w3.org/2000/svg"><path fill="#cdd0ff" d="M98.868 97.706c19.437 0 35.194-15.757 35.194-35.194 0-19.437-15.757-35.194-35.194-35.194-19.437 0-35.194 15.757-35.194 35.194 0 19.437 15.757 35.194 35.194 35.194Z"/><path fill="none" stroke="#000" stroke-width="1.5" stroke-linecap="round" stroke-linejoin="round" d="M126.59 21.656a1.505 1.505 0 1 0 0-3.01 1.505 1.505 0 0 0 0 3.01ZM58.2 107.88a1.505 1.505 0 1 0 0-3.01 1.505 1.505 0 0 0 0 3.01ZM56.157 44.414h3.611M57.963 46.22v-3.612M140.152 30.56h3.611M141.958 32.367v-3.612M100.393 97.706c1.61 0 3.218-.114 4.812-.341"/><path fill="none" stroke="#000" stroke-width="1.5" stroke-linecap="round" stroke-linejoin="round" d="M134.062 64.036c0-18.595-15.074-33.67-33.67-33.67-18.594 0-33.669 15.075-33.669 33.67 0 18.596 15.075 33.67 33.67 33.67"/><path fill="none" stroke="#000" stroke-width="1.5" stroke-linecap="round" stroke-linejoin="round" d="M140.621 73.731a41.486 41.486 0 0 0 1.143-9.695c0-22.848-18.523-41.37-41.371-41.37-22.848 0-41.37 18.522-41.37 41.37 0 22.849 18.522 41.37 41.37 41.37a41.327 41.327 0 0 0 13.129-2.126"/><path fill="none" stroke="#000" stroke-width="1.5" stroke-linecap="round" stroke-linejoin="round" d="M100 75.674a12.337 12.337 0 1 1 12.037-11.55"/><path fill="none" stroke="#000" stroke-width="1.5" stroke-linecap="round" stroke-linejoin="round" d="M96.108 70.18a7.734 7.734 0 1 1 11.352-7.098"/><path fill="#bc94ff" stroke="#000" stroke-width="1.5" stroke-linecap="round" stroke-linejoin="round" d="m124.736 66.418-.23.162c-1.376.968-1.367 2.614-.4 3.99l2.308 3.266-.009.004-3.67-5.215a3.069 3.069 0 0 0-4.263-.74c-1.376.967-1.865 2.985-.897 4.361l3.093 4.414h0l-4.573-6.496a3.068 3.068 0 0 0-4.262-.741c-1.376.968-1.844 3.027-.876 4.403l3.979 5.652-.006.003-12.095-17.186a3.068 3.068 0 0 0-4.262-.741 3.068 3.068 0 0 0-.742 4.262l12.786 18.169 4.128 5.866-5.218-3.708a3.142 3.142 0 0 0-4.368.74 3.142 3.142 0 0 0 .739 4.368s10.984 7.879 11.636 8.269a14.809 14.809 0 0 0 22.28-14.789 14.787 14.787 0 0 0-2.552-6.435l-5.674-8.064c-3.113-4.423-5.386-4.662-6.852-3.814Z"/></svg>
